X:7068
%8506
T:Kesh
M:6/8
L:1/8
R:Jig
K:Cmaj
|:~C3CDE|DED DEG|AGG cGG|AGE GED|CDC CDE|DED DEG|AGG cGE|1DCB,C2G,:|2DC
B,C2D||:~E3GEG|AcA GEC|~E3GEC|DED DCD|~E3GEG|AcA GEG|cBc dcd|ecc ~C
c3:|


